X:1
T:Title
%%score { ( 1 4 ) | ( 2 3 ) }
L:1/8
Q:1/4=58
M:6/8
K:Eb
V:1 treble nm="Grand Piano"
V:4 treble 
V:2 bass 
V:3 bass 
V:1
 G2 G [GB]2 [GB] | [_G=A]2 [GA] [=GB]3 | [EG]2 [EG] [GB]2 G | FG=A [DB]3 | G2 G B2 B | %5
w: W.~H.~Pontius * * *|||||
 c2 [Ad] .[Ge]3 | [EG]2 [F=A] [FB]2 [Gc] | [Fd]2 [Ec] .[B,DB]3 | [DF]2 G AGA | [Bd]2 [Ac] .[GB]3 | %10
w: |||||
 [EG]2 A B=AB | [ce]2 [Ac] .[GB]3 | G2 G B2 B | c2 [Ad] .[Ge]3 | G2 A B2 G | %15
w: |||||
 D-[DG][A,DF] .[G,E]3 |] %16
w: |
V:2
 [E,B,E]2 [E,B,E] [E,E]2 [E,E] | [E,C]2 [E,C] [E,B,]3 | [E,B,]2 [E,B,] [E,E]2 [E,B,E] | %3
 [F,E]-[F,B,E][F,CE] [B,,B,]3 | [E,B,E]2 [E,B,E] [G,B,E]2 [G,B,E] | [A,E]2 [F,B,] .[E,B,]3 | %6
 [E,B,]2 [C,C] [D,B,]2 [E,B,] | [F,B,]2 [F,=A,] .B,,3 | z2[K:treble] E F=EF | B,,C,D, .E,3 | %10
 z2[K:treble] F G_G=G | A,,2 C, .E,3 | [E,B,E]2 [E,B,E] [G,B,E]2 [G,B,E] | [A,E]2 [F,B,] .[E,B,]3 | %14
 [E,B,E]2 [F,B,E] [G,B,E]2 [E,B,E] | z B,B,, .E,3 |] %16
V:3
 x6 | x6 | x6 | .=A,3 z3 | x6 | x6 | x6 | x6 | B,,6[K:treble] | x6 | E,6[K:treble] | x6 | x6 | x6 | %14
 x6 | .B,,3 z3 |] %16
V:4
 x6 | x6 | x6 | x6 | x6 | x6 | x6 | x6 | x6 | x6 | x6 | x6 | x6 | x6 | x6 | .[A,F]3 z3 |] %16

